vsi/info_light.svg

<svg viewBox="0 0 16 16" fill="none" xmlns="http://www.w3.org/2000/svg" height="1em" width="1em">
  <path fill-rule="evenodd" clip-rule="evenodd" d="M8.56844 1.03128C10.1595 1.19039 11.6437 1.90518 12.7601 3.04996C13.9764 4.28555 14.6955 5.92552 14.7804 7.65726C14.8652 9.38899 14.3098 11.0913 13.2201 12.4398C12.2179 13.6857 10.8114 14.5416 9.24435 14.8594C7.67733 15.1772 6.0485 14.9369 4.6401 14.18C3.22867 13.4066 2.12683 12.1706 1.5201 10.68C0.910659 9.18166 0.82953 7.52043 1.29009 5.96988C1.74966 4.42537 2.72803 3.0868 4.06008 2.17996C5.38108 1.27892 6.97735 0.87217 8.56844 1.03128ZM9.04012 13.8799C10.383 13.6075 11.5888 12.8756 12.4501 11.81C13.3827 10.6509 13.8572 9.18961 13.7835 7.70377C13.7097 6.21792 13.0929 4.81093 12.0501 3.74991C11.0949 2.77492 9.82753 2.16667 8.46938 2.0314C7.11123 1.89614 5.74875 2.24247 4.62008 3.00992C3.77051 3.59531 3.0845 4.38792 2.62697 5.31265C2.16945 6.23738 1.95559 7.26359 2.00567 8.2941C2.05574 9.3246 2.36809 10.3253 2.91311 11.2013C3.45813 12.0773 4.21776 12.7997 5.12008 13.3C6.3184 13.9467 7.70586 14.1519 9.04012 13.8799ZM7.37506 6L8.62506 6L8.62506 5L7.37506 5L7.37506 6ZM8.62506 7L8.62506 11L7.37506 11L7.37506 7L8.62506 7Z" fill="#007ACC"/>
</svg>

<svg viewBox="0 0 16 16" fill="none" xmlns="http://www.w3.org/2000/svg" height="1em" width="1em">
  <path fill-rule="evenodd" clip-rule="evenodd" d="M8.568 1.031A6.8 6.8 0 0 1 12.76 3.05a7.06 7.06 0 0 1 .46 9.39 6.85 6.85 0 0 1-8.58 1.74 7 7 0 0 1-3.12-3.5 7.12 7.12 0 0 1-.23-4.71 7 7 0 0 1 2.77-3.79 6.8 6.8 0 0 1 4.508-1.149ZM9.04 13.88a5.89 5.89 0 0 0 3.41-2.07 6.07 6.07 0 0 0-.4-8.06 5.82 5.82 0 0 0-7.43-.74 6.06 6.06 0 0 0 .5 10.29 5.81 5.81 0 0 0 3.92.58ZM7.375 6h1.25V5h-1.25v1Zm1.25 1v4h-1.25V7h1.25Z" fill="#007ACC"/>
</svg>
